X: 27644
T: Mopping Nelly
R: reel
M: 4/4
K: Dmajor
g|:e2 c2 eAAa|e2 c2 BGGg:|
|:eA ed/c/ eAAa|eA ed/c/ BGBg:|
|:ef/g/ a/g/f/e/ aAAa|ef/g/ a/g/f/e/ BGBg:|

